!!!OTL: VON MEINEN BERGEN MUSS I SCHEIDE
!!!ARE: Europa, Mitteleuropa, Deutschland, Thueringen; Sachsen; Schweiz?
!!!SCT: B0504
!!!YEM: Copyright 1995, estate of Helmut Schaffrath.
**kern
*ICvox
*Ivox
*M3/4
*k[b-]
*F:
{8c
8f
8g
=1
4.a
8e
8g
8f
=2
4e
8d}
{8d
8g
8a
=3
4.cc
8b-
8d
8e
=4
4f
8r}
{8c
8f
8g
=5
4.a
8e
8g
8f
=6
4e
8d}
{8d
8g
8a
=7
4.cc
8b-
8d
8e
=8
4f
8r}
{8c
8f
8g
=9
8a
8f
4.dd
8a
=10
4cc
8b-}
{8c
8e
8g
=11
8b-
8g
4.ee
8b-
=12
4dd
8cc}
{8c
8f
8a
=13
8cc
8a
4aa
8gg
8ff
=14
4ee
4dd}
{8b-
8g
=15
8f
8e
8dd
8cc
8b-
8g
=16
4f
2r}
=17
{8g
16g
16a
8g
16g
16a
8g
16g
16a
=18
4g
4.ee}
{8ff
=19
4ee
4.dd
8bn
=20
4dd
2cc}
=21
{8b-
8a
8g
8a
8b-
8bn
=22
4cc
4.aa}
{8bb-
=23
4aa
4gg
8.aa
16gg
=24
4ff
8r}
==
!!!AGN: Abschieds - Lied
!!!ONB: ESAC (Essen Associative Code) Database: BOEHME
!!!AMT: simple triple
!!!AIN: vox
!!!EED: Helmut Schaffrath
!!!EEV: 1.0
*-
